X:43
T: ZU KINDELSBERG, AUF DEM HOHEN SCHLOSS
N: Z0044
O: Europa, Mitteleuropa, Deutschland, Westfalen
R: Sagen - Lied, Romanze, Tod
M: 3/8
L: 1/16
K: C
G,2 | C2G,2C2 | E2C2E2 | G4F2 | E2z2
F2 | E3DC2 | D3CD2 | E6 | C4
G,2 | C2G,2C2 | E2C2E2 | G4F2 | E2z2
F2 | E3DC2 | D3CD2 | E6 | C4
G,2 | G,3E,G,2 | G,3E,G,2 | A,4B,2 | C4
E2 | D2C2B,A, | G,2F,2E,2 | F,6 | E,4
C2 | D4C2 | D3CD2 | E6 | C4

